dist/assets/svg/volume.svg

<svg xmlns="http://www.w3.org/2000/svg" width="38" height="31" fill="none" viewBox="0 0 38 31"><path fill="#B3B3B3" d="M19.3511 0C18.875 0 18.4622.161587 18.1138.484761L8.9609 8.97374H1.76C1.28282 8.97374.871122 9.13533.522673 9.4585.174224 9.78167 0 10.1645 0 10.6061V20.3939C0 20.8355.174224 21.2183.522673 21.5415.871122 21.8647 1.28393 22.0263 1.76 22.0263H8.9609L18.1138 30.5152C18.4622 30.8384 18.8739 31 19.3511 31 19.8283 31 20.24 30.8384 20.5884 30.5152 20.9369 30.1921 21.1111 29.8102 21.1111 29.3677V1.63234C21.1111 1.1908 20.9369.807935 20.5895.484761 20.2422.161587 19.8294 0 19.3522 0H19.3511ZM29.5979 19.1322C30.3389 18.0151 30.7094 16.8082 30.7094 15.5103 30.7094 14.2125 30.3389 13.0014 29.5979 11.8751 28.8569 10.7487 27.8774 9.95512 26.6561 9.49425 26.4819 9.40952 26.2634 9.36612 26.0027 9.36612 25.5499 9.36612 25.1572 9.52422 24.8258 9.83939 24.4943 10.1566 24.3286 10.5431 24.3286 11.004 24.3286 11.3625 24.4331 11.6653 24.6432 11.9123 24.8532 12.1592 25.1044 12.3731 25.4011 12.5519 25.6966 12.7307 25.9932 12.927 26.2898 13.1409 26.5864 13.3548 26.8387 13.6565 27.0477 14.0492 27.2567 14.4419 27.3612 14.9286 27.3612 15.5083 27.3612 16.088 27.2567 16.5747 27.0477 16.9673 26.8387 17.36 26.5864 17.6628 26.2898 17.8756 25.9932 18.0885 25.6966 18.2859 25.4011 18.4646 25.1044 18.6434 24.8522 18.8573 24.6432 19.1043 24.4342 19.3512 24.3286 19.655 24.3286 20.0126 24.3286 20.4734 24.4954 20.8609 24.8258 21.1771 25.1572 21.4913 25.5488 21.6514 26.0027 21.6514 26.2634 21.6514 26.4819 21.6091 26.6561 21.5233 27.8763 21.0449 28.8569 20.2471 29.5979 19.1291V19.1322Z"/><path fill="#B3B3B3" d="M35.7563 22.8582C37.252 20.6112 37.9999 18.1571 37.9999 15.499C37.9999 12.8419 37.252 10.3899 35.7563 8.13971C34.2605 5.89271 32.2811 4.25452 29.819 3.23039C29.591 3.14417 29.362 3.10001 29.1329 3.10001C28.6759 3.10001 28.2796 3.26509 27.9451 3.59525C27.6105 3.92541 27.4443 4.31551 27.4443 4.76764C27.4443 5.44479 27.7874 5.95685 28.4735 6.30489C29.4579 6.80855 30.1269 7.19023 30.4785 7.45099C31.7803 8.38891 32.7967 9.56445 33.5265 10.9797C34.2562 12.395 34.6216 13.9007 34.6216 15.5C34.6216 17.0972 34.2562 18.6039 33.5265 20.0203C32.7967 21.4356 31.7803 22.6111 30.4785 23.549C30.1269 23.8098 29.4579 24.1915 28.4735 24.6951C27.7874 25.0432 27.4443 25.5542 27.4443 26.2324C27.4443 26.6835 27.6116 27.0746 27.9451 27.4048C28.2785 27.7349 28.6833 27.9 29.1585 27.9C29.3694 27.9 29.59 27.8558 29.818 27.7696C32.28 26.7444 34.2605 25.1084 35.7552 22.8593L35.7563 22.8582Z"/></svg>

<svg xmlns="http://www.w3.org/2000/svg" width="38" height="31" fill="none" viewBox="0 0 38 31"><path fill="#B3B3B3" d="M19.351 0a1.76 1.76 0 0 0-1.237.485L8.96 8.974h-7.2q-.715 0-1.237.485T0 10.606v9.788q0 .663.523 1.148a1.76 1.76 0 0 0 1.237.484h7.2l9.154 8.49q.522.483 1.237.484.715 0 1.237-.485.523-.484.523-1.147V1.632q0-.662-.521-1.147A1.76 1.76 0 0 0 19.352 0m10.246 19.132q1.11-1.675 1.111-3.622t-1.111-3.635q-1.11-1.69-2.942-2.38a1.5 1.5 0 0 0-.653-.129q-.68 0-1.177.473a1.55 1.55 0 0 0-.497 1.165q0 .538.314.908.314.371.758.64.444.268.889.589.444.32.758.908.313.59.313 1.46t-.313 1.458-.758.909-.889.589a3 3 0 0 0-.758.64 1.36 1.36 0 0 0-.314.908q0 .69.497 1.164.496.473 1.177.474.391 0 .653-.128 1.83-.717 2.942-2.394z"/><path fill="#B3B3B3" d="M35.756 22.858Q38 19.488 38 15.5q0-3.985-2.244-7.36-2.243-3.37-5.937-4.909a1.9 1.9 0 0 0-.686-.13q-.686 0-1.188.495-.501.494-.5 1.173 0 1.015 1.029 1.537 1.477.755 2.005 1.146a9.9 9.9 0 0 1 3.047 3.529 9.7 9.7 0 0 1 1.096 4.52 9.7 9.7 0 0 1-1.096 4.52 9.9 9.9 0 0 1-3.048 3.529q-.527.39-2.005 1.146-1.029.522-1.029 1.537 0 .677.501 1.173.5.495 1.213.495.317 0 .66-.13 3.694-1.538 5.937-4.91z"/></svg>
